X: 944
T: When William At Eve.
B:O'Neill's 944
N:"collected by J. O'Neill."
Z:Transcribed by Tom Keays (htkeays@mailbox.syr.edu)
Z:abc 1.6
M:6/8
R:Jig
L:1/8
K:C
(G/F/) | EGc cBc | Bdf fed | ecG AdB | {d}cBA G2 (G/F/) |
EGc cBc | Bdf fed | {a}gec AdB | c3 c2 :|
|| c | g^fg gag | gfe f2 e | def afd | c>dc B2 G |
A>Bc fdc | B>cd e>fg | fdB GAB | c3 c2 :|


